symbols/web/format_color_reset/materialsymbolsoutlined/format_color_reset_wght500grad200_24px.svg

<svg xmlns="http://www.w3.org/2000/svg" height="24" width="24"><path d="M20.125 16.425 17.85 14.15q.05-.25.063-.488.012-.237.012-.562 0-1.175-.412-2.175-.413-1-1.263-1.825L12 4.9l-1.7 1.675-2-2L12 .9l6.225 6.15q1.2 1.225 1.862 2.712.663 1.488.663 3.338 0 .85-.137 1.687-.138.838-.488 1.638Zm-.075 7.325L16.7 20.4q-1.075.65-2.225 1-1.15.35-2.475.35-3.625 0-6.188-2.512Q3.25 16.725 3.25 13.1q0-1.225.35-2.438Q3.95 9.45 4.7 8.4L.25 3.95 2.1 2.1l19.8 19.8ZM12 18.925q.675 0 1.275-.137.6-.138 1.35-.463l-7.9-7.85q-.35.7-.5 1.337-.15.638-.15 1.288 0 2.425 1.725 4.125 1.725 1.7 4.2 1.7ZM10.675 14.4Zm3.3-3.525Z"/></svg>

<svg xmlns="http://www.w3.org/2000/svg" height="24" width="24"><path d="M20.125 16.425 17.85 14.15Q17.9 13.9 17.913 13.662Q17.925 13.425 17.925 13.1Q17.925 11.925 17.513 10.925Q17.1 9.925 16.25 9.1L12 4.9L10.3 6.575L8.3 4.575L12 0.9L18.225 7.05Q19.425 8.275 20.087 9.762Q20.75 11.25 20.75 13.1Q20.75 13.95 20.613 14.787Q20.475 15.625 20.125 16.425ZM20.05 23.75 16.7 20.4Q15.625 21.05 14.475 21.4Q13.325 21.75 12 21.75Q8.375 21.75 5.812 19.238Q3.25 16.725 3.25 13.1Q3.25 11.875 3.6 10.662Q3.95 9.45 4.7 8.4L0.25 3.95L2.1 2.1L21.9 21.9ZM12 18.925Q12.675 18.925 13.275 18.788Q13.875 18.65 14.625 18.325L6.725 10.475Q6.375 11.175 6.225 11.812Q6.075 12.45 6.075 13.1Q6.075 15.525 7.8 17.225Q9.525 18.925 12 18.925ZM10.675 14.4Q10.675 14.4 10.675 14.4Q10.675 14.4 10.675 14.4Q10.675 14.4 10.675 14.4Q10.675 14.4 10.675 14.4Q10.675 14.4 10.675 14.4Q10.675 14.4 10.675 14.4ZM13.975 10.875Q13.975 10.875 13.975 10.875Q13.975 10.875 13.975 10.875Q13.975 10.875 13.975 10.875Q13.975 10.875 13.975 10.875Z"/></svg>
